X: 43221
T: With Ourselves
R: reel
M: 4/4
K: Edorian
|:E2ED B~E3|DEFD GFED|E2ED B~E3|(3Bcd ed e2ef|
g~B3 gedB|AF~F2 dBAF|E2ED B~E3|DEFD E4:|
e2ef g2ga|g~e3 dBAF|D2 (3FED ADFA|defa gfed|
e2ef g2ga|g~e3 dBAF|D2 (3FED ADFA|dBAF E4|
edBd edBd|gBfB ed (3BAF|D2 (3FED ADFA|defa gfed|
e2ef g2ga|g~e3 dBAF|D2 (3FED ADFA|dBAF E4|

